projects/oblique/icons/MapMarker.svg

<?xml version="1.0" encoding="UTF-8"?><svg id="a" xmlns="http://www.w3.org/2000/svg" viewBox="0 0 24 24"><path d="M11.99973,5.7762c-1.74805,0-3.1709,1.42285-3.1709,3.17139s1.42285,3.1709,3.1709,3.1709c1.74902,0,3.17185-1.42236,3.17185-3.1709s-1.42283-3.17139-3.17185-3.17139ZM11.99973,10.61849c-.9209,0-1.6709-.74951-1.6709-1.6709s.75-1.67139,1.6709-1.67139c.92185,0,1.67185.75,1.67185,1.67139s-.75,1.6709-1.67185,1.6709ZM11.99973,1.24984c-4.24414,0-7.69629,3.45312-7.69629,7.69727,0,1.18799.2627,2.32666.81836,3.4502l6.87793,11.01904,6.91602-11.08643c.51855-1.05859.78125-2.19678.78125-3.38281,0-4.24414-3.45312-7.69727-7.69727-7.69727ZM17.60617,11.60335l-5.60645,8.98047-5.56836-8.91406c-.41699-.84961-.62793-1.76562-.62793-2.72266,0-3.41699,2.7793-6.19727,6.19629-6.19727s6.19727,2.78027,6.19727,6.19727c0,.95508-.21191,1.87158-.59082,2.65625Z"/></svg>

<svg xmlns="http://www.w3.org/2000/svg" viewBox="0 0 24 24"><title>MapMarker</title><path d="M11.99973,5.7762a3.17115,3.17115,0,1,0,3.17185,3.17139A3.1751,3.1751,0,0,0,11.99973,5.7762Zm0,4.84229a1.67115,1.67115,0,1,1,1.67185-1.6709A1.673,1.673,0,0,1,11.99973,10.61849Z" fill="#171717"/><path d="M11.99973,1.24984A7.69437,7.69437,0,0,0,5.1218,12.3973l6.87793,11.019,6.916-11.08642A7.62521,7.62521,0,0,0,19.697,8.9471,7.70616,7.70616,0,0,0,11.99973,1.24984Zm5.60644,10.35351-5.60644,8.98047L6.43137,11.66976A6.12607,6.12607,0,0,1,5.80344,8.9471a6.19678,6.19678,0,1,1,12.39355,0A6.13952,6.13952,0,0,1,17.60617,11.60335Z" fill="#171717"/></svg>
